!! George Gerswhin, "Aren't you kinda glad we did" from
!! "Bumper Book of George Gerswhin,"
!! London: Chappell Music Ltd., 1987; pp.8-11
**kern
*M4/4
*MM[Moderato]
8g
8a-
=1
4b-
4cc
8d-
8cc
8b-
8a-
=2
4b-
2.b-
=3
4r
4g
8b-
8a-
8g
8f
=4
4g
4g
4r
8c
8d
=5
4e-
4e-
4e-
4e-
=6
4r
4e-
8.g-
16f
12e-
12c
[12e-
=7
1e-_
=8
2e-]
4r
8g
8a-
=9
4b-
4cc
8dd-
8cc
8b-
8a-
=10
4b-
2.b-
=11
4r
4g
8b-
8a-
8g
8f
=12
4g
4g
4r
8c
8d
=13
4e-
4e-
4e-
4e-
=14
4r
4e-
8.g-
16f
12e-
12c
[12e-
=15
1e-_
=16
2e-]
4r
4g
=17
2f
4r
4an
=18
2g
4r
4g
=19
8f
8f
8r
8g
8f
8f
8r
8dd
=20
1cc
!! Refrain
!! a tempo
=21
8b-
8b-
4.b-
8g
8f
8e-
=22
8g
[4.g
4g]
4r
=23
12b-
12b-
12b-
4.b-
8g
8f
8e-
=24
8g
[4.g
4g]
4e-
=25
4ee-
4ee-
4.dd
8ee-
=26
8dd
[4.dd
4dd]
4cc
=27
8.bn
16cc
8.b
16cc
4ee-
8g
[8f
=28
2.f]
4r
=29
12b-
12b-
12b-
4.b-
8g
8f
8e-
=30
8g
[4.g
4g]
4r
=31
12b-
12b-
12b-
4.b-
8g
8f
8e-
=32
8g
[4.g
4g]
8.e-
16e-
=33
4ee-
4ee-
4dd
4ee-
=34
8dd
[4.dd
4dd]
4cc
=35
8.bn
16cc
8.b
16cc
4ee-
4g
=36
1e-
=37
8g
8g
4g.
8e-
8f
8g
=38
4an
2.a
=39
12b-
12b-
12b-
4.b-
8g
8an
8b-
=40
1cc
=41
8dd
8dd
8dd
[8dd
8dd]
8b-
8cc
8dd
=42
4ee-
2ee-
4dd
=43
12b-
12b-
12b-
8.b-
16cc
8.b-
16b-
8.g
16a-
=44
2.f
8r
8g
=45
8b-
8b-
4.b-
8g
8f
8e-
=46
8g
[4.g
4g]
4r
=47
12b-
12b-
12b-
4.b-
8g
8f
8e-
=48
8g
[4.g
4g]
4e-
=49
4ee-
4ee-
4dd
4e-
=50
8dd
[4.dd
4dd]
4cc
=51
8.b
16cc
8.bn
16cc
4ee-
4g
!! First ending
=52
2.e-
4r
!! Refrain
!! a tempo
=21
8b-
8b-
4.b-
8g
8f
8e-
=22
8g
[4.g
4g]
4r
=23
12b-
12b-
12b-
4.b-
8g
8f
8e-
=24
8g
[4.g
4g]
4e-
=25
4ee-
4ee-
4.dd
8ee-
=26
8dd
[4.dd
4dd]
4cc
=27
8.bn
16cc
8.b
16cc
4ee-
8g
[8f
=28
2.f]
4r
=29
12b-
12b-
12b-
4.b-
8g
8f
8e-
=30
8g
[4.g
4g]
4r
=31
12b-
12b-
12b-
4.b-
8g
8f
8e-
=32
8g
[4.g
4g]
8.e-
16e-
=33
4ee-
4ee-
4dd
4ee-
=34
8dd
[4.dd
4dd]
4cc
=35
8.bn
16cc
8.b
16cc
4ee-
4g
=36
1e-
=37
8g
8g
4g.
8e-
8f
8g
=38
4an
2.a
=39
12b-
12b-
12b-
4.b-
8g
8an
8b-
=40
1cc
=41
8dd
8dd
8dd
[8dd
8dd]
8b-
8cc
8dd
=42
4ee-
2ee-
4dd
=43
12b-
12b-
12b-
8.b-
16cc
8.b-
16b-
8.g
16a-
=44
2.f
8r
8g
=45
8b-
8b-
4.b-
8g
8f
8e-
=46
8g
[4.g
4g]
4r
=47
12b-
12b-
12b-
4.b-
8g
8f
8e-
=48
8g
[4.g
4g]
4e-
=49
4ee-
4ee-
4dd
4e-
=50
8dd
[4.dd
4dd]
4cc
=51
8.b
16cc
8.bn
16cc
4ee-
4g
!! Second ending
=51
[2e-
4e-]
4r
====
*-
